X:1
T:Title
%%score [ 1 2 ]
L:1/8
Q:1/4=219
M:4/4
K:F
V:1 treble nm="Cantus"
V:2 bass nm="Bassus"
V:1
 G8 | G4 G4 |"^Die not before thy day" G6 G2 | G8 | z4 c4- | c4 B4 | A6 A2 | %7
w: Die|not be-|fore thy|day,|poor,|* poor|man con-|
"^John Dowland" G2 G2 z4 |[M:4/4] z4 G2 d2- | d2 c2 B4 | A4 G2 d2- | d2 c2 B4 | A4 D2 E2 | %13
w: dem- ned,|But lift|* thy low|looks, but lift|* thy low|looks from the|
 ^F2 (G4 !courtesy!^F2) | G8 | z4 B4 | A4 c2 B2- | B2 A2 G2 ^F2 | G6 G2 | ^F4 !courtesy!^F4 | %20
w: hum- ble *|earth,|kiss|not des- pair|* and see sweet|hope con-|tern- ned:|
 z2 G2 G2 B2 | A4 B2 c2- | c2 ^c2 d4- | d6 B2 | A6 A2 | G8 | z4 A4- | A4 G4- | G4 F4 | E4 E4 | %30
w: The hag hath|no de- light,|* but moan,|* but|moan for|mirth,|O|* fie|* poor|fond- ling,|
 z4 d4- | d4 c4- | c4 B4 | A4 A4 | z2 B2 A2 B2 | c2 c2 B2 c2 | d6 B2 | c4 B4 | A4 A4 |: %39
w: O|* fie|* poor|fond- ling,|fie, fie, be|will- ing to pre-|serve thy|self from|kill- ing:|
[M:3/2] d4 d2 d4 d2 | c4 c2 c4 c2 | B4 B2 B4 B2 |[M:3/2] c4 c2 c4 c2 | d6 d2 d2 d2 | B6 B2 B4 | %45
w: Hope thy keep- er|glad to free thee,|Bids thee go and|will not see thee,|hie thee quick- ly|from thy wrong,|
 A6 B2 A2 A2 | %46
w: so she ends her|
V:2
 G,,8 | C,4 B,,4 | _E,6 D,2 | C,4 =B,,4 | C,8 | D,8- | D,8 | G,,4 G,4 |[M:4/4] F,3 F, G,4 | %9
w: Die|not be-|fore thy|day, poor|man|con-||demned, but|lift thy low|
 D,4 G,,4 | ^F,,3 F,, G,,4 | D,4 z2 G,,2 | D,4 B,,4 | A,,6 A,,2 | G,,8 | G,8 | D4 A,2 B,2- | %17
w: looks, but|lift thy low|looks, thy|looks from|th'hum- ble|earth,|kiss|not des- pair|
 B,2 F,2 G,2 D,2 | _E,6 E,2 | D,4 D,4 | G,8 | D,4 G,2 F,2- | F,2 E,2 (D,3 E,) | %23
w: * and see sweet|hope con-|tern- ned:|The|hag hath no|* de- * *|
 (^F,2 G,2) F,2 G,2 | D,6 D,2 | G,,8 | D,8 | A,,8- | A,,8 | (A,,6 G,,2) | ^F,,8 | G,,8 | G,,4 D,4 | %33
w: but * moan, but|moan for|mirth,|O|fie,||O *|fie,|fie|poor fond-|
 D,4 z4 | G,4 D,2 G,2 | F,3 F, G,2 F,2 | B,,6 B,,2 | F,4 G,4 | D,4 D,4 |: %39
w: ling,|fie, fie, be|will- ing to pre-|serve thy|self from|kill- ing,|
[M:3/2] B,2 G,2 D2 B,2 G,2 B,2 | A,2 F,2 C2 A,2 F,2 A,2 | G,4 F,2 _E,4 D,2 | %42
w: Hope, hope thy keep- er is|glad for to free thee, and|bids thee go and|
[M:3/2] C,4 E,2 D,4 C,2 | (B,,2 D,2) C,2 B,,2 D,4 | G,,6 (A,,2 B,,2) C,2 | %45
w: will not see thee,|hie * thee quick- ly|from thy * wrong,|
 (D,3 E, F,2) B,,2 C,2 D,2 | %46
w: so * * she ends her|

